pro/src/icons/stroke-euro.svg

<svg width="48" height="48" viewBox="0 0 48 48" fill="none" xmlns="http://www.w3.org/2000/svg">
<path id='icon' fill="currentColor" d="M16.4594 19.8143C16.4032 19.9807 16.4314 20.1636 16.5351 20.3059C16.6388 20.4482 16.8054 20.5325 16.9828 20.5325H26.6134C27.2822 20.5325 27.804 21.0541 27.804 21.673C27.804 22.2919 27.2822 22.8135 26.6134 22.8135H16.2477C15.9651 22.8135 15.7281 23.0247 15.6989 23.3026C15.6388 23.8741 15.608 24.4554 15.608 25.0449C15.608 26.244 15.7366 27.4107 15.9799 28.5312C16.0344 28.7827 16.2592 28.9622 16.5193 28.9622H26.6134C27.2822 28.9622 27.804 29.4838 27.804 30.1027C27.804 30.7216 27.2822 31.2432 26.6134 31.2432H17.6692C17.4803 31.2432 17.3046 31.3387 17.2034 31.4964C17.1022 31.654 17.0896 31.8519 17.17 32.0209C18.3539 34.509 20.1496 36.6195 22.3431 38.1418C24.736 39.8025 27.6013 40.7639 30.6788 40.7639C33.4064 40.7639 35.9659 40.0088 38.1778 38.6822C38.7428 38.3434 39.4807 38.5162 39.8242 39.0526C40.1632 39.5818 39.9993 40.2808 39.4411 40.6156C36.8693 42.1581 33.8749 43.0449 30.6788 43.0449C27.0705 43.0449 23.7213 41.9148 20.9463 39.989C18.0121 37.9526 15.7193 35.0278 14.4192 31.5973C14.3385 31.3843 14.1326 31.2432 13.9026 31.2432H9.19056C8.52182 31.2432 8 30.7216 8 30.1027C8 29.4838 8.52182 28.9622 9.19056 28.9622H12.9722C13.1353 28.9622 13.29 28.8909 13.3949 28.7674C13.4997 28.6439 13.5439 28.4808 13.5156 28.3221C13.3259 27.2588 13.2269 26.1634 13.2269 25.0449C13.2269 24.493 13.2512 23.9464 13.2987 23.4062C13.3121 23.2539 13.2602 23.103 13.1557 22.9904C13.0512 22.8777 12.9037 22.8135 12.749 22.8135H9.19056C8.52182 22.8135 8 22.2919 8 21.673C8 21.0541 8.52182 20.5325 9.19056 20.5325H13.3555C13.6045 20.5325 13.8226 20.3677 13.8879 20.1302C15.9551 12.6183 22.6313 7.04492 30.6788 7.04492C33.8749 7.04492 36.8693 7.93179 39.4411 9.47424C39.9993 9.80902 40.1632 10.5081 39.8242 11.0373C39.4807 11.5736 38.7428 11.7465 38.1778 11.4076C35.9659 10.081 33.4064 9.32591 30.6788 9.32591C24.1718 9.32591 18.5346 13.6692 16.4594 19.8143Z"/>
</svg>

<svg xmlns="http://www.w3.org/2000/svg" width="48" height="48" fill="none"><path id="icon" fill="currentColor" d="M16.46 19.814a.54.54 0 0 0 .075.492c.104.142.27.226.448.226h9.63c.67 0 1.191.522 1.191 1.141s-.522 1.14-1.19 1.14H16.247a.55.55 0 0 0-.55.49 16.7 16.7 0 0 0 .282 5.228.55.55 0 0 0 .54.431h10.093c.67 0 1.191.522 1.191 1.14 0 .62-.522 1.141-1.19 1.141h-8.945a.55.55 0 0 0-.466.253.54.54 0 0 0-.033.525 15.6 15.6 0 0 0 5.173 6.12 14.56 14.56 0 0 0 15.835.541c.565-.339 1.303-.166 1.646.37.34.53.175 1.229-.383 1.564a17 17 0 0 1-8.762 2.429c-3.608 0-6.958-1.13-9.733-3.056a17.96 17.96 0 0 1-6.527-8.392.55.55 0 0 0-.516-.354H9.19c-.67 0-1.191-.521-1.191-1.14 0-.62.522-1.14 1.19-1.14h3.782a.56.56 0 0 0 .423-.196.54.54 0 0 0 .12-.445 18.7 18.7 0 0 1-.216-4.916.54.54 0 0 0-.143-.416.56.56 0 0 0-.407-.176H9.191c-.67 0-1.191-.522-1.191-1.141s.522-1.14 1.19-1.14h4.166a.55.55 0 0 0 .532-.403c2.067-7.512 8.743-13.085 16.79-13.085 3.197 0 6.191.887 8.763 2.43.558.334.722 1.033.383 1.562-.343.537-1.081.71-1.646.37a14.5 14.5 0 0 0-7.5-2.081c-6.506 0-12.143 4.343-14.219 10.488"/></svg>
